svg/u1f699.svg

<svg viewBox="0 0 128 128" xmlns="http://www.w3.org/2000/svg">
  <path d="M114.19,74.5c0,0,0.52-1.29,2.13-1.95c1.51-0.62,5.04-0.7,6.56,1.15c1.6,1.95,1.55,4.79,2.07,9.82 c0.41,3.88,0.77,8.21,0.14,10.19c-0.47,1.49-1.85,2.95-5.05,3.04c-3.19,0.09-4.7-1.95-4.7-1.95L114.19,74.5z" fill="#31322E"/>
  <path d="M4.39,82.44c0,0-0.46-2.67,1.97-5.1s4.06-2.67,7.18-2.9s14.6-0.58,14.6-0.58s25.15-27.81,25.38-28.04 c0.23-0.23,51.68-0.58,53.54-0.58s4.98,1.51,5.45,4.17c0.46,2.67,3,29.08,3,29.08L64.99,91.01L4.39,82.44z" fill="#489DF6"/>
  <path d="M58.46,93.15l-34.04-7.58L4.61,101.66c0,0-2.66-0.27-2.66,2.39s-0.27,7.31,0.27,7.71 s94.27,0.8,94.27,0.8s22.2-0.13,22.87-0.53s0.74-0.87,0.93-5.05c0.11-2.39,0.62-4.59-2.04-4.86c-0.25-0.02-0.78-0.04-1-0.08 c-2.1-0.4-2.55-1.44-2.55-1.44l-8.91-14.23l-32.04,2.66L58.46,93.15z" fill="#506D71"/>
  <path d="M28.09,96.99c-8.02-0.13-13.97,5.55-13.97,13.71c0,6.85,4.66,12.84,13.06,13.19 c9.18,0.39,14.22-6.71,14.35-12.67C41.66,105.26,37.4,97.14,28.09,96.99z" fill="#4C443F"/>
  <path d="M27.57,103.06c-4.39,0.21-7.24,3.36-7.11,7.24c0.13,3.88,3.1,7.5,7.5,7.37 c4.4-0.13,7.11-3.23,7.24-6.98C35.32,107.07,33,102.8,27.57,103.06z" fill="#C8C8C8"/>
  <path d="M102.12,98.71c-6.77-4.29-14.81-2.55-19.07,4.41c-3.58,5.85-2.76,13.45,4.26,18.07 c6.85,4.51,15.4,1.51,18.62-3.51C109.15,112.67,109.98,103.69,102.12,98.71z" fill="#4C443F"/>
  <path d="M98.38,103.41c-3.86-2.11-8.09-0.43-9.85,2.47c-2.01,3.32-1.27,8.02,2.55,10.2 c3.82,2.18,7.67,0.9,9.82-2.18C102.57,111.51,103.15,106.02,98.38,103.41z" fill="#C8C8C8"/>
  <path d="M4.02,101.68c0.8,0.08,7.39-0.05,7.39-0.05s1.86-5.18,7.1-8.01c6.47-3.49,14.74-3.1,20.17,0.78 c5.9,4.22,6.59,8.71,6.59,8.71l32.07-0.18c0,0,1.81-6.85,8.02-10.73c5.81-3.63,14.7-3.12,19.79,0.65c6.47,4.78,7.11,9.18,7.11,9.18 s4.48,0.02,5.02,0.02c0.23,0-0.49-11.27-0.49-11.27l-1.29-12.29c0,0-14.22-0.13-22.63,2.2c-8.41,2.33-16.04,2.59-27.29,2.46 c-11.25-0.13-19.14-1.16-24.7-2.2c-5.56-1.03-13.32-1.81-20.17,0.13c-6.85,1.94-8.79,4.78-8.79,4.78s-7.76,4.01-8.02,4.78 S4.02,101.68,4.02,101.68z" fill="#1D86FB"/>
  <path d="M110.7,80.21c-0.32,0.66-0.11,3.66-0.07,6.67c0.03,2.48-0.08,4.52,0.33,4.77 c0.39,0.25,5.98-0.06,5.98-0.06l-0.97-10.81l-0.21-0.77C115.75,80.01,110.85,79.92,110.7,80.21z" fill="#FF2A23"/>
  <path d="M6.68,81.12c0,0,8.71-0.32,9.24,0.26c0.53,0.58,0,2-1.06,4.01s-2.95,4.96-3.32,5.28 c-0.37,0.32-5.03,0.21-5.03,0.21L4.62,83.7L6.68,81.12z" fill="#FFFFFF"/>
  <path d="M4.04,81.17c0,0-0.53,2.05-0.58,4.75c-0.05,2.69,0.42,4.96,0.42,4.96h2.64c0,0-0.31-2.27-0.26-4.81 c0.05-2.64,0.63-4.95,0.63-4.95L4.04,81.17z" fill="#D7CCC5"/>
  <path d="M56.12,51.19c-1.7,0.92-6.58,7.28-9.08,10.31c-2.5,3.03-9.09,10.83-9.55,11.74 c-0.45,0.91-0.3,2.05,1.14,2.12c1.44,0.08,39.17,0.45,39.7,0.38c0.53-0.08,0.76-0.91,0.68-1.67c-0.08-0.76,0.38-20.68,0.23-21.59 s-1.21-1.74-3.03-1.74C74.61,50.75,57.03,50.7,56.12,51.19z" fill="#506D73"/>
  <path d="M57.51,53.37c-0.76,0.45-14.95,17.64-15.31,18.11c-0.53,0.68-0.54,1.24,0.36,1.24 s32.12,0.08,32.88,0.08s1.21-0.53,1.14-1.36c-0.08-0.83,0.38-16.97,0.23-17.42c-0.15-0.45-0.53-0.98-1.36-0.98 S58.16,52.99,57.51,53.37z" fill="#AFE3FB"/>
  <path d="M86.81,50.75c-0.61,0-1.82,0.53-1.82,1.67c0,1.14,0.15,21.82,0.15,22.5s0.45,0.76,1.59,0.76 s20.91-0.23,21.74-0.23s0.83-1.06,0.76-1.82c-0.08-0.76-2.5-19.85-2.65-21.06c-0.15-1.21-1.06-1.97-2.27-2.05 C103.1,50.44,86.81,50.75,86.81,50.75z" fill="#506D73"/>
  <path d="M44.01,75.26c0,0,1.52,2.35,2.63,3.44c1.04,1.02,2.53,1.85,3.96,1.73c1.43-0.11,2.33-1.45,2.57-5.69 c0.27-4.69-0.78-5.78-2.57-5.83c-1.83-0.06-2.01,0.63-3.15,1.72C46.83,71.22,44.01,75.26,44.01,75.26z" fill="#0250AC"/>
  <path d="M48.4,75.65c1.17-0.14,2.03-0.83,2.78-2.61c0.75-1.78,0.08-2.96-0.67-3.4 c-0.84-0.5-1.67-0.33-1.87-0.23c-0.16,0.08-0.82,0.71-1.48,1.51c-0.9,1.08-1.66,2.24-1.66,2.24S46.75,75.85,48.4,75.65z" fill="#489DF6"/>
  <path d="M87.87,53.32c-0.29,0.29,0,19.39,0.23,19.55c0.23,0.15,17.95,0.23,18.18,0 c0.23-0.23-2.27-19.62-2.58-19.85C103.4,52.79,88.17,53.02,87.87,53.32z" fill="#AFE3FB"/>
</svg>

<svg viewBox="0 0 128 128" xmlns="http://www.w3.org/2000/svg">
  <defs/>
  <path d="M114.19,74.5 C114.19,74.5 114.71,73.21 116.32,72.55 C117.83,71.93 121.36,71.85 122.88,73.7 C124.48,75.65 124.43,78.49 124.95,83.52 C125.36,87.4 125.72,91.73 125.09,93.71 C124.62,95.2 123.24,96.66 120.04,96.75 C116.85,96.84 115.34,94.8 115.34,94.8 L114.19,74.5 Z" fill="#31322E"/>
  <path d="M4.39,82.44 C4.39,82.44 3.93,79.77 6.36,77.34 C8.79,74.91 10.42,74.67 13.54,74.44 C16.66,74.21 28.14,73.86 28.14,73.86 C28.14,73.86 53.29,46.05 53.52,45.82 C53.75,45.59 105.2,45.24 107.06,45.24 C108.92,45.24 112.04,46.75 112.51,49.41 C112.97,52.08 115.51,78.49 115.51,78.49 L64.99,91.01 L4.39,82.44 Z" fill="#489DF6"/>
  <path d="M58.46,93.15 L24.42,85.57 L4.61,101.66 C4.61,101.66 1.95,101.39 1.95,104.05 C1.95,106.71 1.68,111.36 2.22,111.76 C2.76,112.16 96.49,112.56 96.49,112.56 C96.49,112.56 118.69,112.43 119.36,112.03 C120.03,111.63 120.1,111.16 120.29,106.98 C120.4,104.59 120.91,102.39 118.25,102.12 C118,102.1 117.47,102.08 117.25,102.04 C115.15,101.64 114.7,100.6 114.7,100.6 L105.79,86.37 L73.75,89.03 L58.46,93.15 Z" fill="#506D71"/>
  <path d="M28.09,96.99 C20.07,96.86 14.12,102.54 14.12,110.7 C14.12,117.55 18.78,123.54 27.18,123.89 C36.36,124.28 41.4,117.18 41.53,111.22 C41.66,105.26 37.4,97.14 28.09,96.99 Z" fill="#4C443F"/>
  <path d="M27.57,103.06 C23.18,103.27 20.33,106.42 20.46,110.3 C20.59,114.18 23.56,117.8 27.96,117.67 C32.36,117.54 35.07,114.44 35.2,110.69 C35.32,107.07 33,102.8 27.57,103.06 Z" fill="#C8C8C8"/>
  <path d="M102.12,98.71 C95.35,94.42 87.31,96.16 83.05,103.12 C79.47,108.97 80.29,116.57 87.31,121.19 C94.16,125.7 102.71,122.7 105.93,117.68 C109.15,112.67 109.98,103.69 102.12,98.71 Z" fill="#4C443F"/>
  <path d="M98.38,103.41 C94.52,101.3 90.29,102.98 88.53,105.88 C86.52,109.2 87.26,113.9 91.08,116.08 C94.9,118.26 98.75,116.98 100.9,113.9 C102.57,111.51 103.15,106.02 98.38,103.41 Z" fill="#C8C8C8"/>
  <path d="M4.02,101.68 C4.82,101.76 11.41,101.63 11.41,101.63 C11.41,101.63 13.27,96.45 18.51,93.62 C24.98,90.13 33.25,90.52 38.68,94.4 C44.58,98.62 45.27,103.11 45.27,103.11 L77.34,102.93 C77.34,102.93 79.15,96.08 85.36,92.2 C91.17,88.57 100.06,89.08 105.15,92.85 C111.62,97.63 112.26,102.03 112.26,102.03 C112.26,102.03 116.74,102.05 117.28,102.05 C117.51,102.05 116.79,90.78 116.79,90.78 L115.5,78.49 C115.5,78.49 101.28,78.36 92.87,80.69 C84.46,83.02 76.83,83.28 65.58,83.15 C54.33,83.02 46.44,81.99 40.88,80.95 C35.32,79.92 27.56,79.14 20.71,81.08 C13.86,83.02 11.92,85.86 11.92,85.86 C11.92,85.86 4.16,89.87 3.9,90.64 C3.64,91.41 4.02,101.68 4.02,101.68 Z" fill="#1D86FB"/>
  <path d="M110.7,80.21 C110.38,80.87 110.59,83.87 110.63,86.88 C110.66,89.36 110.55,91.4 110.96,91.65 C111.35,91.9 116.94,91.59 116.94,91.59 L115.97,80.78 L115.76,80.01 C115.75,80.01 110.85,79.92 110.7,80.21 Z" fill="#FF2A23"/>
  <path d="M6.68,81.12 C6.68,81.12 15.39,80.8 15.92,81.38 C16.45,81.96 15.92,83.38 14.86,85.39 C13.8,87.4 11.91,90.35 11.54,90.67 C11.17,90.99 6.51,90.88 6.51,90.88 L4.62,83.7 L6.68,81.12 Z" fill="#FFFFFF"/>
  <path d="M4.04,81.17 C4.04,81.17 3.51,83.22 3.46,85.92 C3.41,88.61 3.88,90.88 3.88,90.88 L6.52,90.88 C6.52,90.88 6.21,88.61 6.26,86.07 C6.31,83.43 6.89,81.12 6.89,81.12 L4.04,81.17 Z" fill="#D7CCC5"/>
  <path d="M56.12,51.19 C54.42,52.11 49.54,58.47 47.04,61.5 C44.54,64.53 37.95,72.33 37.49,73.24 C37.04,74.15 37.19,75.29 38.63,75.36 C40.07,75.44 77.8,75.81 78.33,75.74 C78.86,75.66 79.09,74.83 79.01,74.07 C78.93,73.31 79.39,53.39 79.24,52.48 C79.09,51.57 78.03,50.74 76.21,50.74 C74.61,50.75 57.03,50.7 56.12,51.19 Z" fill="#506D73"/>
  <path d="M57.51,53.37 C56.75,53.82 42.56,71.01 42.2,71.48 C41.67,72.16 41.66,72.72 42.56,72.72 C43.46,72.72 74.68,72.8 75.44,72.8 C76.2,72.8 76.65,72.27 76.58,71.44 C76.5,70.61 76.96,54.47 76.81,54.02 C76.66,53.57 76.28,53.04 75.45,53.04 C74.62,53.04 58.16,52.99 57.51,53.37 Z" fill="#AFE3FB"/>
  <path d="M86.81,50.75 C86.2,50.75 84.99,51.28 84.99,52.42 C84.99,53.56 85.14,74.24 85.14,74.92 C85.14,75.6 85.59,75.68 86.73,75.68 C87.87,75.68 107.64,75.45 108.47,75.45 C109.3,75.45 109.3,74.39 109.23,73.63 C109.15,72.87 106.73,53.78 106.58,52.57 C106.43,51.36 105.52,50.6 104.31,50.52 C103.1,50.44 86.81,50.75 86.81,50.75 Z" fill="#506D73"/>
  <path d="M44.01,75.26 C44.01,75.26 45.53,77.61 46.64,78.7 C47.68,79.72 49.17,80.55 50.6,80.43 C52.03,80.32 52.93,78.98 53.17,74.74 C53.44,70.05 52.39,68.96 50.6,68.91 C48.77,68.85 48.59,69.54 47.45,70.63 C46.83,71.22 44.01,75.26 44.01,75.26 Z" fill="#0250AC"/>
  <path d="M48.4,75.65 C49.57,75.51 50.43,74.82 51.18,73.04 C51.93,71.26 51.26,70.08 50.51,69.64 C49.67,69.14 48.84,69.31 48.64,69.41 C48.48,69.49 47.82,70.12 47.16,70.92 C46.26,72 45.5,73.16 45.5,73.16 C45.5,73.16 46.75,75.85 48.4,75.65 Z" fill="#489DF6"/>
  <path d="M87.87,53.32 C87.58,53.61 87.87,72.71 88.1,72.87 C88.33,73.02 106.05,73.1 106.28,72.87 C106.51,72.64 104.01,53.25 103.7,53.02 C103.4,52.79 88.17,53.02 87.87,53.32 Z" fill="#AFE3FB"/>
</svg>
